X:1
T: A New Beginning
N:
C:Tune is Water Music by Handel
S:
A:
O:
R:
M:3/4
K:Am
I:speed 150
%W: A1
% voice 1 (1 lines, 28 notes)
K:Am
M:3/4
L:1/16
E4 |A2 B2 c4 B4 |A4 f4 e4 |d4 c4 B4 |A2 ^G2 A2 B2 c2 d2 |e4 a4 g4 |f4 e4 d4 |g4 c4 B4 |c8 E4 |
%W: A2
% voice 1 (1 lines, 26 notes)
A2 B2 c4 B4 |A4 f4 e4 |d4 c4 B4 |A2 ^G2 A2 B2 c2 d2 |e4 a4 g4 |f4 e4 d4 |g4 c4 B4 |c12 |
%W: B
% voice 1 (1 lines, 24 notes)
e2 d2 c4 g4 |g12 |d2 c2 B4 g4 |g12 |c2 B2 A4 g4 |g12 |g4 f2 e2 d2 c2 |B2 c2 d4 G4 |
%W:
% voice 1 (1 lines, 22 notes)
e2 d2 c4 c'4 |c'12 |e2 d2 c4 c'4 |c'12 |f4 e4 d4 |g4 f2 e2 d2 c2 |d4 G4 B4 |c8 ||
